X: 4220
T: The TAIL OF MY COAT
R: Jig
%R: jig
B: James Kerr "Merry Melodies" v.4 p.24 #220
Z: 2016 John Chambers <jc:trillian.mit.edu>
M: 6/8
L: 1/8
K: G
|:\
B3 d3 | ece d3 | B3 d3 | cBc ABc |\
B3 d3 | ece d3 | gfe dcB | ABG FED :|
|:\
GBd dBd | ece dBG | GBd dBG | EAG FED |\
GBd dBd | ece def | gfe dcB | ABG FED :|

%%sep 1 1 500
%%sep 1 1 500

